X: 38933
T: Surveyor's
R: reel
M: 4/4
K: Fmajor
|:f2 fe fgaf|c2 cd c2 ce|f2 fe fgaf|d2 dc d2 fg|
a2 fa g2 eg|f2 fe fcAc|BAGF EFGE|1 F2 FE F2 Ac:|2 F2 FE FdcB||
|:AFcF dFcF|AFFF EFGB|AFcF dFcA|BdcA BGGB|
AFcF dFcF|AFFF EFGB|Acfa gfeg|f2 fe f2 cB:|

